X: 7932
T: Concertina, The
R: reel
M: 4/4
K: Dmajor
|:A2FA BAFA|A2FA BAFA|B2cA BAcA|BAcA BAFG|
A2FA BAFA|A2FA BAFE|D2Bc (3ddd dB|AFEF D4:|
|:Ad ~d2 Ad ~d2|AddA BAFA|B2cA BAcA|BAcA BAFG|
Ad ~d2 Ad ~d2|Addc BAFE|D2 FA BcdB|AFEF D4:|

